X: 138
T: No_71_The_Sunrise.krn
N: Derived from No_71_The_Sunrise.krn
%%abc-version 2.0
%%abcx-abcm2ps-target-version 5.9.1 (29 Sep 2008)
%%abc-creator hum2abc beta
%%abcx-conversion-date 2019/03/15 08:37:56
%%humdrum-veritas 839898974
%%humdrum-veritas-data 3298342407
%%linebreak <none>
%%barnumbers 0
L: 1/4
M: 2/4
K: G clef=bass
[K:clef=bass][M:2/4]B,2 | 
B,/G,/G, | 
B,B,/G,/ | 
G,G,/ z/ | 
G,B, | 
B,G, | 
(F,E,) | 
B,,G,,3//B,,// | 
B,,2 | 
B,,/B,,/B,, | 
B,,3/B,,/ | 
B,,2 | 
D,D, | 
D,3//B,,// B,,/G,,/ | 
B,,2 ||  
[M:3/4]B,,B,,G,, | 
B,,B,,B,, ||  
[M:2/4]B,,G,, ||  
[M:3/4]B,,B,,B,, | 
B,,B,,2 |]  



